X:1
T:Eucharist, LM
T:Eucharist, LM
T:Isaac Baker Woodbury (1819-1858)
T:Public Domain Courtesy of the Cyber Hymnal™
C:Isaac Baker Woodbury (1819-1858)
Z:Public Domain
Z:Courtesy of the Cyber Hymnal™
%%score 1 ( 2 3 )
L:1/8
Q:1/4=125
M:4/4
K:D
V:1 treble 
V:2 bass 
V:3 bass 
V:1
 [DF]4 [DF]2 [DF]2 | [FA]6 [FA]2 | ([GB]2 [FA]2) ([^E^G]2 [FA]2) | [DF]6 [DF]2 | %4
 ([CE]3 [DF] [EG]2) [CE]2 | ([DF]3 [EG] [FA]2) [DF]2 | ([CE]2 [EA]2) ([Ec]2 [DB]2) | [CA]6 z2 | %8
 [DF]4 [DF]2 [DF]2 | [FA]6 [FA]2 | ([GB]2 [FA]2) ([E^G]2 [FA]2) | [DF]6 [FA]2 | %12
 ([Fd]2 [Ac]2 [GB]2) [FA]2 | ([GB]2 [Ac]2 [Bd]2) [GB]2 | ([FA]2 [DF]2) ([EG]2 [FA]2) | [DF]8 |] %16
V:2
 [D,A,]4 [D,A,]2 [D,A,]2 | [D,D]6 [D,D]2 | [D,D]4 [D,D]4 | [D,A,]6 [D,A,]2 | [A,,A,]6 [A,,A,]2 | %5
 [D,A,]6 [D,A,]2 | (A,2 C2) (A,2 ^G,2) | [A,,A,]6 z2 | [D,A,]4 [D,A,]2 [D,A,]2 | [D,D]6 [D,D]2 | %10
 [D,D]4 [D,D]4 | [D,A,]6 [D,D]2 | [D,D]6 [D,D]2 | [G,D]6 [G,D]2 | (D2 A,2) [A,,A,]4 | [D,A,]8 |] %16
V:3
 x8 | x8 | x8 | x8 | x8 | x8 | E,4 E,4 | x8 | x8 | x8 | x8 | x8 | x8 | x8 | A,4 x4 | x8 |] %16

